X: 3379
M: 2/4
L: 1/8
K: D
|:\
fa ag/f/ | ggg2 | gfed | cBA2 |\
a>fg>e | fde2 | d2e>g | fddz :|


